src/img/img_home-active.svg

<svg width="26" height="21" viewBox="0 0 26 26" fill="none" xmlns="http://www.w3.org/2000/svg">
<path d="M12.5727 5.69016L4.34004 12.4911V19.7841C4.34004 20.1868 4.65324 20.5 5.05593 20.5H10.0671C10.4251 20.5 10.7383 20.1868 10.7383 19.7841V15.4888C10.7383 15.1309 11.0962 14.7729 11.4541 14.7729H14.3177C14.7204 14.7729 15.0336 15.1309 15.0336 15.4888V19.7841C15.0336 20.1868 15.3915 20.5 15.7494 20.5H20.8054C21.1633 20.5 21.5213 20.1868 21.5213 19.7841V12.4463L13.2438 5.69016C13.1544 5.60067 13.0201 5.55593 12.9306 5.55593C12.7964 5.55593 12.6622 5.60067 12.5727 5.69016ZM25.5928 10.2987L21.8792 7.21141V1.03691C21.8792 0.723714 21.6107 0.5 21.3423 0.5H18.8367C18.5235 0.5 18.2998 0.723714 18.2998 1.03691V4.25839L14.2729 0.947427C13.9597 0.678971 13.3333 0.5 12.8859 0.5C12.4832 0.5 11.8568 0.678971 11.5436 0.947427L0.223714 10.2987C0.0894855 10.3881 0 10.5671 0 10.7013C0 10.8356 0.0894855 10.9698 0.134228 11.0593L1.29754 12.4463C1.38702 12.5358 1.566 12.6253 1.70022 12.6253C1.78971 12.6253 1.96868 12.5805 2.05817 12.4911L12.5727 3.85571C12.6622 3.76622 12.7964 3.72148 12.9306 3.72148C13.0201 3.72148 13.1544 3.76622 13.2438 3.85571L23.7584 12.4911C23.8479 12.5805 24.0268 12.6253 24.1163 12.6253C24.2506 12.6253 24.4295 12.5358 24.519 12.4463L25.6823 11.0593C25.7271 10.9698 25.8166 10.8356 25.8166 10.7013C25.8166 10.5671 25.7271 10.3881 25.5928 10.2987Z" fill="#2AA7FF"/>
</svg>

<svg width="26" height="21" viewBox="0 0 26 26" fill="none" xmlns="http://www.w3.org/2000/svg"><path d="M12.57 5.69l-8.23 6.8v7.3c0 .4.31.71.72.71h5a.7.7 0 00.68-.72v-4.3c0-.35.36-.7.71-.7h2.87c.4 0 .71.35.71.7v4.3c0 .4.36.72.72.72h5.06c.35 0 .71-.31.71-.72v-7.33l-8.28-6.76a.48.48 0 00-.3-.13.5.5 0 00-.37.13zm13.02 4.6l-3.71-3.08V1.04a.54.54 0 00-.54-.54h-2.5a.52.52 0 00-.54.54v3.22L14.27.95A2.44 2.44 0 0012.9.5c-.4 0-1.03.18-1.35.45L.22 10.3a.53.53 0 00-.22.4c0 .14.09.27.13.36l1.17 1.39c.09.09.27.18.4.18a.6.6 0 00.36-.14l10.51-8.63a.5.5 0 01.36-.14c.09 0 .22.05.31.14l10.52 8.63a.6.6 0 00.36.14c.13 0 .3-.1.4-.18l1.16-1.4c.05-.08.14-.21.14-.35a.53.53 0 00-.23-.4z" fill="#2AA7FF"/></svg>
